main/scenes/main_menu/textures/game_fill.svg

<?xml version="1.0" encoding="UTF-8" standalone="no"?>
<!-- Uploaded to: SVG Repo, www.svgrepo.com, Transformed by: SVG Repo Mixer Tools -->

<svg
   width="96"
   height="96"
   viewBox="0 0 2.88 2.88"
   fill="none"
   version="1.1"
   id="svg1"
   sodipodi:docname="game_fill.svg"
   inkscape:version="1.4 (86a8ad7, 2024-10-11)"
   xmlns:inkscape="http://www.inkscape.org/namespaces/inkscape"
   xmlns:sodipodi="http://sodipodi.sourceforge.net/DTD/sodipodi-0.dtd"
   xmlns="http://www.w3.org/2000/svg"
   xmlns:svg="http://www.w3.org/2000/svg">
  <defs
     id="defs1" />
  <sodipodi:namedview
     id="namedview1"
     pagecolor="#ffffff"
     bordercolor="#000000"
     borderopacity="0.25"
     inkscape:showpageshadow="2"
     inkscape:pageopacity="0.0"
     inkscape:pagecheckerboard="0"
     inkscape:deskcolor="#d1d1d1"
     inkscape:zoom="0.51875"
     inkscape:cx="279.51807"
     inkscape:cy="326.74699"
     inkscape:window-width="1366"
     inkscape:window-height="697"
     inkscape:window-x="-8"
     inkscape:window-y="-8"
     inkscape:window-maximized="1"
     inkscape:current-layer="svg1" />
  <g
     id="SVGRepo_bgCarrier"
     stroke-width="0"
     transform="matrix(0.14399979,0,0,0.14399979,1.7120031,4.280001)" />
  <g
     id="SVGRepo_tracerCarrier"
     stroke-linecap="round"
     stroke-linejoin="round"
     transform="matrix(0.14399979,0,0,0.14399979,1.7120031,4.280001)" />
  <g
     id="SVGRepo_iconCarrier"
     transform="matrix(0.14399979,0,0,0.14399979,-0.28799999,-0.35999738)">
    <path
       fill-rule="evenodd"
       clip-rule="evenodd"
       d="M 10.6669,6.13443 10.165,5.77922 C 9.44862,5.27225 8.59264,5 7.71504,5 H 7.10257 C 6.69838,5 6.29009,5.02549 5.90915,5.16059 3.52645,6.00566 1.88749,9.09504 2.00604,16.1026 2.02992,17.5145 2.3603,19.075 3.63423,19.6842 4.03121,19.8741 4.49667,20 5.02671,20 5.66273,20 6.1678,19.8187 6.55763,19.5632 6.96641,19.2953 7.32633,18.9471 7.68612,18.599 8.13071,18.1688 8.57511,17.7389 9.11125,17.4609 9.69519,17.1581 10.3434,17 11.0011,17 h 1.9978 c 0.6577,0 1.3059,0.1581 1.8899,0.4609 0.5361,0.278 0.9805,0.7079 1.4251,1.1381 0.3598,0.3481 0.7197,0.6963 1.1285,0.9642 0.3898,0.2555 0.8949,0.4368 1.5309,0.4368 0.53,0 0.9955,-0.1259 1.3925,-0.3158 1.2739,-0.6092 1.6043,-2.1697 1.6282,-3.5816 C 22.1125,9.09503 20.4735,6.00566 18.0908,5.16059 17.7099,5.02549 17.3016,5 16.8974,5 H 16.2849 C 15.4074,5 14.5514,5.27225 13.8351,5.77922 L 13.3332,6.13441 C 12.9434,6.41029 12.4776,6.55844 12,6.55844 c -0.4775,0 -0.9433,-0.14815 -1.3331,-0.42401 z M 16.75,9 c 0.4142,0 0.75,0.33579 0.75,0.75 0,0.4142 -0.3358,0.75 -0.75,0.75 C 16.3358,10.5 16,10.1642 16,9.75 16,9.33579 16.3358,9 16.75,9 Z M 7.5,9.25 c 0.41421,0 0.75,0.33579 0.75,0.75 v 0.75 H 9 c 0.41421,0 0.75,0.3358 0.75,0.75 0,0.4142 -0.33579,0.75 -0.75,0.75 H 8.25 V 13 c 0,0.4142 -0.33579,0.75 -0.75,0.75 C 7.08579,13.75 6.75,13.4142 6.75,13 V 12.25 H 6 C 5.58579,12.25 5.25,11.9142 5.25,11.5 5.25,11.0858 5.58579,10.75 6,10.75 H 6.75 V 10 C 6.75,9.58579 7.08579,9.25 7.5,9.25 Z m 11.5,2 C 19,11.6642 18.6642,12 18.25,12 17.8358,12 17.5,11.6642 17.5,11.25 c 0,-0.4142 0.3358,-0.75 0.75,-0.75 0.4142,0 0.75,0.3358 0.75,0.75 z M 15.25,12 C 15.6642,12 16,11.6642 16,11.25 16,10.8358 15.6642,10.5 15.25,10.5 c -0.4142,0 -0.75,0.3358 -0.75,0.75 0,0.4142 0.3358,0.75 0.75,0.75 z m 2.25,0.75 C 17.5,12.3358 17.1642,12 16.75,12 16.3358,12 16,12.3358 16,12.75 c 0,0.4142 0.3358,0.75 0.75,0.75 0.4142,0 0.75,-0.3358 0.75,-0.75 z"
       fill="#ffffff"
       id="path1" />
  </g>
</svg>

<!DOCTYPE svg PUBLIC "-//W3C//DTD SVG 1.1//EN" "http://www.w3.org/Graphics/SVG/1.1/DTD/svg11.dtd">
<!-- Uploaded to: SVG Repo, www.svgrepo.com, Transformed by: SVG Repo Mixer Tools -->
<svg width="800px" height="800px" viewBox="0 0 24 24" fill="none" xmlns="http://www.w3.org/2000/svg">
<g id="SVGRepo_bgCarrier" stroke-width="0"/>
<g id="SVGRepo_tracerCarrier" stroke-linecap="round" stroke-linejoin="round"/>
<g id="SVGRepo_iconCarrier"> <path fill-rule="evenodd" clip-rule="evenodd" d="M10.6669 6.13443L10.165 5.77922C9.44862 5.27225 8.59264 5 7.71504 5H7.10257C6.69838 5 6.29009 5.02549 5.90915 5.16059C3.52645 6.00566 1.88749 9.09504 2.00604 16.1026C2.02992 17.5145 2.3603 19.075 3.63423 19.6842C4.03121 19.8741 4.49667 20 5.02671 20C5.66273 20 6.1678 19.8187 6.55763 19.5632C6.96641 19.2953 7.32633 18.9471 7.68612 18.599C8.13071 18.1688 8.57511 17.7389 9.11125 17.4609C9.69519 17.1581 10.3434 17 11.0011 17H12.9989C13.6566 17 14.3048 17.1581 14.8888 17.4609C15.4249 17.7389 15.8693 18.1688 16.3139 18.599C16.6737 18.9471 17.0336 19.2953 17.4424 19.5632C17.8322 19.8187 18.3373 20 18.9733 20C19.5033 20 19.9688 19.8741 20.3658 19.6842C21.6397 19.075 21.9701 17.5145 21.994 16.1026C22.1125 9.09503 20.4735 6.00566 18.0908 5.16059C17.7099 5.02549 17.3016 5 16.8974 5H16.2849C15.4074 5 14.5514 5.27225 13.8351 5.77922L13.3332 6.13441C12.9434 6.41029 12.4776 6.55844 12 6.55844C11.5225 6.55844 11.0567 6.41029 10.6669 6.13443ZM16.75 9C17.1642 9 17.5 9.33579 17.5 9.75C17.5 10.1642 17.1642 10.5 16.75 10.5C16.3358 10.5 16 10.1642 16 9.75C16 9.33579 16.3358 9 16.75 9ZM7.5 9.25C7.91421 9.25 8.25 9.58579 8.25 10V10.75H9C9.41421 10.75 9.75 11.0858 9.75 11.5C9.75 11.9142 9.41421 12.25 9 12.25H8.25V13C8.25 13.4142 7.91421 13.75 7.5 13.75C7.08579 13.75 6.75 13.4142 6.75 13V12.25H6C5.58579 12.25 5.25 11.9142 5.25 11.5C5.25 11.0858 5.58579 10.75 6 10.75H6.75V10C6.75 9.58579 7.08579 9.25 7.5 9.25ZM19 11.25C19 11.6642 18.6642 12 18.25 12C17.8358 12 17.5 11.6642 17.5 11.25C17.5 10.8358 17.8358 10.5 18.25 10.5C18.6642 10.5 19 10.8358 19 11.25ZM15.25 12C15.6642 12 16 11.6642 16 11.25C16 10.8358 15.6642 10.5 15.25 10.5C14.8358 10.5 14.5 10.8358 14.5 11.25C14.5 11.6642 14.8358 12 15.25 12ZM17.5 12.75C17.5 12.3358 17.1642 12 16.75 12C16.3358 12 16 12.3358 16 12.75C16 13.1642 16.3358 13.5 16.75 13.5C17.1642 13.5 17.5 13.1642 17.5 12.75Z" fill="#ffffff"/> </g>
</svg>
